X: 3
T: The New Copperplate
R: reel
M: 4/4
L: 1/8
K: Gmaj
|:G2dG BGdG|G2dc BGG2|A2eA cAeA|A2ed cAFA|
G2dG BGdG|G2dc BGG2|ABcd efge|1 aged cAFA:|2 aged (3B^cd ef||
|:g3f g2ef|gedc BGG2|eaag agea|aged (3B^cd ef|
g3f g2ef|gedc BGG2|ABcd efge|1 aged (3B^cd ef:|2 aged cAFA||


Tune 887	Setting 14073

